SVG-Logos/Frameworks-Languages-IDEs/Web Dev, Animation/vue-logo.svg

<svg width="26" height="26" viewBox="0 0 26 26" fill="none" xmlns="http://www.w3.org/2000/svg">
<path d="M6.81543 4.69464H3.11133L12.4111 20.6386L21.6628 4.69458H17.9749L12.4111 14.2801L6.81543 4.69464Z" fill="#41B883"/>
<path d="M10.2432 4.68872L6.82129 4.68091L12.4222 14.2777L17.9541 4.68482L14.5127 4.68091L12.3915 8.38897L10.2432 4.68872Z" fill="#35495E"/>
</svg>

<svg xmlns="http://www.w3.org/2000/svg" fill="none" viewBox="0 0 26 26"><path fill="#41B883" d="M6.815 4.695H3.111l9.3 15.944 9.252-15.944h-3.688L12.41 14.28 6.815 4.695Z"/><path fill="#35495E" d="M10.243 4.689 6.821 4.68l5.601 9.597 5.532-9.593-3.441-.004-2.121 3.708-2.149-3.7Z"/></svg>
